Sources/FrostedUI/Resources/Icons.xcassets/shoppingBag20.imageset/shopping-bag-20.svg

<svg width="20" height="20" viewBox="0 0 20 20" fill="none" xmlns="http://www.w3.org/2000/svg" data-fui-icon="true">
  <path
    d="M13.093 1.25C15.7605 1.25029 18.0045 3.25121 18.3088 5.90137L19.1692 13.4014C19.5268 16.5173 17.0907 19.2496 13.9543 19.25H6.04614C2.90965 19.2498 0.473618 16.5174 0.831299 13.4014L1.69165 5.90137C1.996 3.25114 4.23986 1.25017 6.90747 1.25H13.093ZM6.90747 2.75C5.00208 2.75017 3.39927 4.17928 3.18188 6.07227L2.32153 13.5723C2.06595 15.798 3.8058 17.7498 6.04614 17.75H13.9543C16.1945 17.7496 17.9354 15.7979 17.6799 13.5723L16.8186 6.07227C16.6012 4.17935 14.9983 2.75029 13.093 2.75H6.90747ZM13.0002 5.25C13.4143 5.25014 13.7502 5.58588 13.7502 6V6.02051C13.7501 6.03032 13.7498 6.04322 13.7493 6.05859C13.7482 6.08941 13.7461 6.13151 13.7424 6.18262C13.7351 6.28449 13.7214 6.42514 13.6936 6.5918C13.6386 6.92205 13.5265 7.3741 13.2961 7.83496C13.0642 8.29888 12.7042 8.78617 12.1506 9.15527C11.5923 9.52749 10.8814 9.74996 10.0002 9.75C9.1191 9.75 8.4082 9.52745 7.84985 9.15527C7.29622 8.78618 6.93633 8.2989 6.70435 7.83496C6.47397 7.37408 6.36193 6.92207 6.30688 6.5918C6.27912 6.42513 6.26534 6.2845 6.25806 6.18262C6.25441 6.13151 6.25225 6.08941 6.25122 6.05859C6.25071 6.04322 6.2504 6.03032 6.25024 6.02051V6.00098C6.25343 6.00059 6.3009 6.00001 7.00024 6H6.25024C6.25024 5.58579 6.58603 5.25 7.00024 5.25C7.41304 5.25013 7.74814 5.58376 7.75024 5.99609V6.00879C7.75068 6.02189 7.75196 6.04448 7.75415 6.0752C7.75859 6.13729 7.76831 6.23143 7.78735 6.3457C7.82606 6.57778 7.90173 6.87622 8.04614 7.16504C8.18914 7.45088 8.39198 7.71395 8.68188 7.90723C8.96726 8.09743 9.38161 8.25 10.0002 8.25C10.6189 8.24996 11.0333 8.09745 11.3186 7.90723C11.6084 7.71394 11.8114 7.45086 11.9543 7.16504C12.0987 6.87623 12.1744 6.57776 12.2131 6.3457C12.2322 6.23143 12.2419 6.13728 12.2463 6.0752C12.2485 6.04448 12.2498 6.02188 12.2502 6.00879C12.2505 6.00224 12.2502 5.99761 12.2502 5.99609C12.2523 5.58368 12.5873 5.25 13.0002 5.25Z"
    fill="currentColor"
  />
</svg>

<svg xmlns="http://www.w3.org/2000/svg" width="20" height="20" fill="none" data-fui-icon="true" viewBox="0 0 20 20"><path fill="currentColor" d="M13.093 1.25a5.25 5.25 0 0 1 5.216 4.651l.86 7.5a5.25 5.25 0 0 1-5.215 5.849H6.046a5.25 5.25 0 0 1-5.215-5.849l.86-7.5A5.25 5.25 0 0 1 6.908 1.25zm-6.186 1.5a3.75 3.75 0 0 0-3.725 3.322l-.86 7.5a3.75 3.75 0 0 0 3.724 4.178h7.908a3.75 3.75 0 0 0 3.726-4.178l-.861-7.5a3.75 3.75 0 0 0-3.726-3.322zM13 5.25a.75.75 0 0 1 .75.75v.02a2 2 0 0 1-.008.163 4.439 4.439 0 0 1-.446 1.652 3.4 3.4 0 0 1-1.145 1.32c-.559.372-1.27.595-2.15.595-.882 0-1.593-.223-2.151-.595a3.4 3.4 0 0 1-1.146-1.32 4.4 4.4 0 0 1-.454-1.814V6L7 6h-.75a.75.75 0 0 1 1.5-.004v.013l.004.066a2.94 2.94 0 0 0 .292 1.09c.143.286.346.549.636.742.285.19.7.343 1.318.343s1.033-.153 1.319-.343c.29-.193.492-.456.635-.742a3 3 0 0 0 .26-.82 3 3 0 0 0 .036-.336v-.013A.75.75 0 0 1 13 5.25"/></svg>
